assets/images/calendar.svg

<svg version="1.1" viewBox="0 0 512 512" xmlns="http://www.w3.org/2000/svg" xmlns:xlink="http://www.w3.org/1999/xlink">
	<defs>
		<style>path{fill:#fff;}</style>
	</defs>
	<title>calendar</title>
	<path d="M441.2148438,34.9250488h-45.8828125v39.0673828c0,8.9638672-7.2919922,16.2568359-16.2558594,16.2568359   s-16.2568359-7.2929688-16.2568359-16.2568359V34.9250488H149.1806641v39.0673828   c0,8.9638672-7.2929688,16.2568359-16.2568359,16.2568359s-16.2558594-7.2929688-16.2558594-16.2568359V34.9250488H70.7851562   c-22.6474609,0-41.0722656,18.4248047-41.0722656,41.0717773V446.427002c0,22.6464844,18.4248047,41.0712891,41.0722656,41.0712891   h370.4296875c22.6474609,0,41.0722656-18.4248047,41.0722656-41.0712891V75.9968262   C482.2871094,53.3498535,463.8623047,34.9250488,441.2148438,34.9250488z M70.7851562,52.9250488h27.8828125v21.0673828   c0,18.8891602,15.3671875,34.2568359,34.2558594,34.2568359c18.8896484,0,34.2568359-15.3676758,34.2568359-34.2568359V52.9250488   h177.6386719v21.0673828c0,18.8891602,15.3671875,34.2568359,34.2568359,34.2568359   c18.8886719,0,34.2558594-15.3676758,34.2558594-34.2568359V52.9250488h27.8828125   c12.7216797,0,23.0722656,10.3500977,23.0722656,23.0717773v79.9995117H47.7128906V75.9968262   C47.7128906,63.2751465,58.0634766,52.9250488,70.7851562,52.9250488z M441.2148438,469.498291H70.7851562   c-12.7216797,0-23.0722656-10.3496094-23.0722656-23.0712891V173.9963379h416.5742188V446.427002   C464.2871094,459.1486816,453.9365234,469.498291,441.2148438,469.498291z"/>
	<path d="M133.3251953,81.7897949c4.9707031,0,9-4.0292969,9-9V33.501709c0-4.9707031-4.0292969-9-9-9s-9,4.0292969-9,9v39.2880859   C124.3251953,77.760498,128.3544922,81.7897949,133.3251953,81.7897949z"/>
	<path d="M379.4765625,81.7897949c4.9707031,0,9-4.0292969,9-9V33.501709c0-4.9707031-4.0292969-9-9-9s-9,4.0292969-9,9v39.2880859   C370.4765625,77.760498,374.5058594,81.7897949,379.4765625,81.7897949z"/>
	<path d="M83.3730469,273.6496582h66.3388672v-66.3383789H83.3730469V273.6496582z M101.3730469,225.3112793h30.3388672v30.3383789   h-30.3388672V225.3112793z"/>
	<path d="M176.2412109,273.6496582h66.3378906v-66.3383789h-66.3378906V273.6496582z M194.2412109,225.3112793h30.3378906   v30.3383789h-30.3378906V225.3112793z"/>
	<path d="M269.1083984,273.6496582h66.3388672v-66.3383789h-66.3388672V273.6496582z M287.1083984,225.3112793h30.3388672   v30.3383789h-30.3388672V225.3112793z"/>
	<path d="M361.9765625,273.6496582h66.3378906v-66.3383789h-66.3378906V273.6496582z M379.9765625,225.3112793h30.3378906   v30.3383789h-30.3378906V225.3112793z"/>
	<path d="M83.3730469,354.114502h66.3388672v-66.3378906H83.3730469V354.114502z M101.3730469,305.7766113h30.3388672v30.3378906   h-30.3388672V305.7766113z"/>
	<path d="M176.2412109,354.114502h66.3378906v-66.3378906h-66.3378906V354.114502z M194.2412109,305.7766113h30.3378906v30.3378906   h-30.3378906V305.7766113z"/>
	<path d="M269.1083984,354.114502h66.3388672v-66.3378906h-66.3388672V354.114502z M287.1083984,305.7766113h30.3388672v30.3378906   h-30.3388672V305.7766113z"/>
	<path d="M361.9765625,354.114502h66.3378906v-66.3378906h-66.3378906V354.114502z M379.9765625,305.7766113h30.3378906v30.3378906   h-30.3378906V305.7766113z"/>
	<path d="M83.3730469,435.3820801h66.3388672v-66.3388672H83.3730469V435.3820801z M101.3730469,387.0432129h30.3388672v30.3388672   h-30.3388672V387.0432129z"/>
	<path d="M176.2412109,435.3820801h66.3378906v-66.3388672h-66.3378906V435.3820801z M194.2412109,387.0432129h30.3378906   v30.3388672h-30.3378906V387.0432129z"/>
	<path d="M269.1083984,435.3820801h66.3388672v-66.3388672h-66.3388672V435.3820801z M287.1083984,387.0432129h30.3388672   v30.3388672h-30.3388672V387.0432129z"/>
	<path d="M361.9765625,435.3820801h66.3378906v-66.3388672h-66.3378906V435.3820801z M379.9765625,387.0432129h30.3378906   v30.3388672h-30.3378906V387.0432129z"/>
</svg>

<svg viewBox="0 0 512 512" xmlns="http://www.w3.org/2000/svg"><defs><style>path{fill:#fff}</style></defs><path d="M441.215 34.925h-45.883v39.067c0 8.964-7.292 16.257-16.256 16.257s-16.257-7.293-16.257-16.257V34.925H149.181v39.067c0 8.964-7.293 16.257-16.257 16.257s-16.256-7.293-16.256-16.257V34.925H70.785c-22.647 0-41.072 18.425-41.072 41.072v370.43c0 22.646 18.425 41.071 41.072 41.071h370.43c22.647 0 41.072-18.425 41.072-41.071V75.997c0-22.647-18.425-41.072-41.072-41.072zm-370.43 18h27.883v21.067c0 18.89 15.367 34.257 34.256 34.257 18.89 0 34.257-15.367 34.257-34.257V52.925h177.638v21.067c0 18.89 15.368 34.257 34.257 34.257 18.889 0 34.256-15.367 34.256-34.257V52.925h27.883c12.722 0 23.072 10.35 23.072 23.072v80H47.713v-80c0-12.722 10.35-23.072 23.072-23.072zm370.43 416.573H70.785c-12.722 0-23.072-10.35-23.072-23.071v-272.43h416.574v272.43c0 12.722-10.35 23.071-23.072 23.071z"/><path d="M133.325 81.79a9 9 0 009-9V33.502a9 9 0 00-18 0V72.79a9 9 0 009 9zM379.477 81.79a9 9 0 009-9V33.502a9 9 0 00-18 0V72.79a9 9 0 009 9zM83.373 273.65h66.339V207.31H83.373v66.339zm18-48.339h30.339v30.339h-30.339V225.31zM176.241 273.65h66.338V207.31h-66.338v66.339zm18-48.339h30.338v30.339h-30.338V225.31zM269.108 273.65h66.34V207.31h-66.34v66.339zm18-48.339h30.34v30.339h-30.34V225.31zM361.977 273.65h66.337V207.31h-66.337v66.339zm18-48.339h30.337v30.339h-30.337V225.31zM83.373 354.115h66.339v-66.338H83.373v66.338zm18-48.338h30.339v30.338h-30.339v-30.338zM176.241 354.115h66.338v-66.338h-66.338v66.338zm18-48.338h30.338v30.338h-30.338v-30.338zM269.108 354.115h66.34v-66.338h-66.34v66.338zm18-48.338h30.34v30.338h-30.34v-30.338zM361.977 354.115h66.337v-66.338h-66.337v66.338zm18-48.338h30.337v30.338h-30.337v-30.338zM83.373 435.382h66.339v-66.339H83.373v66.34zm18-48.339h30.339v30.34h-30.339v-30.34zM176.241 435.382h66.338v-66.339h-66.338v66.34zm18-48.339h30.338v30.34h-30.338v-30.34zM269.108 435.382h66.34v-66.339h-66.34v66.34zm18-48.339h30.34v30.34h-30.34v-30.34zM361.977 435.382h66.337v-66.339h-66.337v66.34zm18-48.339h30.337v30.34h-30.337v-30.34z"/></svg>
